X:9
T:K.V. 487/9
M:3/4
L:1/8
K:C major
V:1
c6 | (ed)(dB) c2 | f4e2 | (ed)(dB) c2 | (a4g2) | (g2f2)e2 | (ed)dgec | e4 d2 ::
V:2
C2E2C2 | G2F2E2 | z2 B2c2 | G2F2E2 | z2 f2e2 | A2B2c2 | G2 z2 CE | G2G,2 z2 ::
V:1
(g6- | g^fed^cd) | (f6- | fedcBc) | c'bagfe | defgae | (eg)(ce)(dB) | (B4c) z ::
V:2
+mf+ A2B2^c2 | d2 z2 z2 | G2A2B2 | c2 z2 z2 | egfedc | Bcdefd | c2 E,2 G,2 | (G,4C) z ::
V:1
[K:F major] +p+ c2 (c2>f2) | (fe) e2 z2 | c2 (e2>g2) | (gf) f2 z2 | c2 (f2>a2) | (ag) (f2>e2) | (ed)dcde | (d4c) z ::
V:2
[K:F major] AcAcAc | BcBcBc | BcBcBc | AcAcAc | AcAcAc | =B4 B2 | F2 z2 G2 | (G4C) z ::
V:1
+mf+ cdefga | bgec f2 | d3 e fg | (f4e2) | c2 (f2>_e2) | d^cdef^f | (g>a) f2 e2 | (e4f) z :|]
V:2
z6 | c2 B2 A2 | B2 B2 =B2 | c2 C2 z2 | AcAcAc | BABG A2 | B2 c2 c2 | (c4a) z :|]

